X:692
T:Reel 692
M:4/4
K:Gmaj
L:1/8
d>B (3BAB  (3cBA B>A| (3BAG B>G  (3BAB g2| (3efg d>B  (3BAB cBAB| (3cBA =fA c2:|c>A (3AAA c>A  (3ABA |G>c (3Bcd e>d (3Bcd |e>A (3AGA e>A (3ABA |gfec c2:|
